resource/paid.svg

<svg clip-rule="evenodd" fill-rule="evenodd" height="14" stroke-linejoin="round" stroke-miterlimit="2" viewBox="-1 -1 37 37" width="14" xmlns="http://www.w3.org/2000/svg"><circle cx="17.5" cy="17.5" fill="#fff" r="18.5"/><path d="m17.5 0c9.659 0 17.5 7.841 17.5 17.5s-7.841 17.5-17.5 17.5-17.5-7.841-17.5-17.5 7.841-17.5 17.5-17.5zm-6.129 21.346h3.605c.128 1.202.994 1.803 2.596 1.803.801 0 1.41-.173 1.827-.517.417-.345.625-.805.625-1.382 0-.513-.164-.954-.493-1.322-.328-.369-.781-.617-1.358-.745l-1.827-.409c-1.57-.353-2.76-.982-3.569-1.887s-1.214-2.063-1.214-3.473c0-1.17.341-2.167 1.022-2.993.681-.825 1.622-1.398 2.824-1.718l-.024-.457v-1.923h3.605v1.923l-.024.336c1.298.225 2.328.746 3.089 1.563s1.19 1.859 1.286 3.125h-3.606c-.064-.529-.3-.942-.709-1.238-.408-.297-.949-.445-1.622-.445-.705 0-1.254.168-1.647.505-.392.336-.589.761-.589 1.274 0 .448.153.837.457 1.165.305.329.745.557 1.322.686l1.923.432c1.554.353 2.736.99 3.545 1.911.81.921 1.214 2.095 1.214 3.521 0 1.298-.396 2.392-1.19 3.281-.793.89-1.878 1.471-3.256 1.743l.048.649v1.923h-3.606v-1.923l.048-.673c-1.282-.272-2.299-.821-3.052-1.646-.754-.826-1.17-1.855-1.25-3.089z" fill="#008207"/></svg>

<?xml version="1.0" encoding="UTF-8" standalone="no"?>
<!DOCTYPE svg PUBLIC "-//W3C//DTD SVG 1.1//EN" "http://www.w3.org/Graphics/SVG/1.1/DTD/svg11.dtd">
<svg width="13" height="13" viewBox="0 0 35 35" version="1.1" xmlns="http://www.w3.org/2000/svg" xmlns:xlink="http://www.w3.org/1999/xlink" xml:space="preserve" xmlns:serif="http://www.serif.com/" style="fill-rule:evenodd;clip-rule:evenodd;stroke-linejoin:round;stroke-miterlimit:2;">
    <path d="M17.5,-0C27.159,-0 35,7.841 35,17.5C35,27.159 27.159,35 17.5,35C7.841,35 0,27.159 0,17.5C0,7.841 7.841,-0 17.5,-0ZM11.371,21.346L14.976,21.346C15.104,22.548 15.97,23.149 17.572,23.149C18.373,23.149 18.982,22.976 19.399,22.632C19.816,22.287 20.024,21.827 20.024,21.25C20.024,20.737 19.86,20.296 19.531,19.928C19.203,19.559 18.75,19.311 18.173,19.183L16.346,18.774C14.776,18.421 13.586,17.792 12.777,16.887C11.968,15.982 11.563,14.824 11.563,13.414C11.563,12.244 11.904,11.247 12.585,10.421C13.266,9.596 14.207,9.023 15.409,8.703L15.385,8.246L15.385,6.323L18.99,6.323L18.99,8.246L18.966,8.582C20.264,8.807 21.294,9.328 22.055,10.145C22.816,10.962 23.245,12.004 23.341,13.27L19.735,13.27C19.671,12.741 19.435,12.328 19.026,12.032C18.618,11.735 18.077,11.587 17.404,11.587C16.699,11.587 16.15,11.755 15.757,12.092C15.365,12.428 15.168,12.853 15.168,13.366C15.168,13.814 15.321,14.203 15.625,14.531C15.93,14.86 16.37,15.088 16.947,15.217L18.87,15.649C20.424,16.002 21.606,16.639 22.415,17.56C23.225,18.481 23.629,19.655 23.629,21.081C23.629,22.379 23.233,23.473 22.439,24.362C21.646,25.252 20.561,25.833 19.183,26.105L19.231,26.754L19.231,28.677L15.625,28.677L15.625,26.754L15.673,26.081C14.391,25.809 13.374,25.26 12.621,24.435C11.867,23.609 11.451,22.58 11.371,21.346Z" style="fill:rgb(0,130,7);"/>
</svg>
